X: 32446
T: Piranha
R: polka
M: 2/4
K: Aminor
|:c>B AB|cAae|f>e df|e^f ^ga|
c>B AB|cAae|f>e dc|B^G A2:|
|:B>B cc|dd ee|f>f ^ff|gg ^gg|
aa _bb|a^g a2|f>e dc|B^G A2:|
|:A/d/f/d/ A/d/f/d/|A/c/e/c/ A/c/e/c/|^G/B/e/B/ G/B/e/B/|A/c/e/c/ A/c/e/c/|
A/d/f/d/ A/d/f/d/|A/c/e/c/ A/c/e/c/|f/e/d/c/ B/A/^G/B/|A4:|

